X:18
T:Lichtmann 18
C:G. F. Handel
M:3/4
L:1/8
Q:"Allegro moderato" 1/4=132
K:F
!f!A2A2A2|A2 (AB) (AB)|c2 c2 c2|c3 (B/c/)d2|B2B2B2|B3 (A/B/)c2|A2 AA AA|A6||
AG F2 A2|A2 AB (A/G/A/B/)|c2c2(dc)|c3 (B/c/)d2|B2B2 (c/B/A/B/)|B3 (A/B/) c2|A2 AA AA|A6||
c2c2c2|c2d2e2|f2ff ff|f4c2|d2c2B2|A2G2F2|G2 GG GG|G6||
(AB)c2(BA)|!p!(GA)B2(AG)|(AB)c2(BA)|!f!(GA)B2(AG)|(AB)c2B2|A2(BA) GA|F2FF FF|F6|]

